X:153
T:Xmas simple chords 6
M:3/4
L:1/8
K:Bm
^E2 d2 =e2 | [^e2D,2F,2A,2] =e2 d2 | [A2A,2C2E2G2] d2 e2 | [d6D,6F,6A,6] | [D,2F,2A,2] a2 a2 |
[a2D,2F,2A,2] ^e2 d2 | [e4E,4^G,4B,4D4] ^e2 | [e6A,6C6E6G6] | [A,4C4E4G4] a2 |
[a4D,4F,4A,4] ^e2 | [^e2D,2F,2A,2=C2] =e2 ^e2 | [g2G,2B,2D2] g2 g2 | [g4G,4^A,4D4] g2 |
[^e2D,2F,2A,2] =e2 d2 | [e2A,2C2E2G2] d2 =c2 | [d6D,6F,6A,6] | [D,6F,6A,6] |


